X: 40439
T: Tom Moran's Fancy
R: strathspey
M: 4/4
K: Dmajor
A2 BGAF (3GFE|DFAd BE E2|A2 BGAF (3GFE|DF (3GFE FDDF|
AD D2 AD D2|DFAd BE E2|AD D2 AF (3GFE|DF (3GFE FDDA||
dafe dafe|dafe dBBg|fdec dBAG|(3FGA EG FDDA|
dafe faaf|g3a bgeg|fdec dBAG|(3FGA EG FDDF||

